src/svg/uf19c-bank,institution,university.svg

<!-- Generated by IcoMoon.io -->
<svg version="1.1" xmlns="http://www.w3.org/2000/svg" width="34" height="32" viewBox="0 0 34 32">
<path d="M17.143 0l17.143 6.857v2.286h-2.286c0 0.625-0.554 1.143-1.232 1.143h-27.25c-0.679 0-1.232-0.518-1.232-1.143h-2.286v-2.286zM4.571 11.429h4.571v13.714h2.286v-13.714h4.571v13.714h2.286v-13.714h4.571v13.714h2.286v-13.714h4.571v13.714h1.054c0.679 0 1.232 0.518 1.232 1.143v1.143h-29.714v-1.143c0-0.625 0.554-1.143 1.232-1.143h1.054v-13.714zM33.054 28.571c0.679 0 1.232 0.518 1.232 1.143v2.286h-34.286v-2.286c0-0.625 0.554-1.143 1.232-1.143h31.821z"></path>
</svg>

<svg xmlns="http://www.w3.org/2000/svg" width="34" height="32"><path d="M17.143 0l17.143 6.857v2.286H32c0 .625-.554 1.143-1.232 1.143H3.518c-.679 0-1.232-.518-1.232-1.143H0V6.857zM4.571 11.429h4.571v13.714h2.286V11.429h4.571v13.714h2.286V11.429h4.571v13.714h2.286V11.429h4.571v13.714h1.054c.679 0 1.232.518 1.232 1.143v1.143H2.285v-1.143c0-.625.554-1.143 1.232-1.143h1.054V11.429zm28.483 17.142c.679 0 1.232.518 1.232 1.143V32H0v-2.286c0-.625.554-1.143 1.232-1.143h31.821z"/></svg>
